X:1
T:Title
%%score { 1 | 2 }
L:1/8
M:4/4
K:G
V:1 treble nm="Grand Piano"
V:2 bass 
V:1
 z4 z2[Q:1/4=92] BA | GGED G2 BA | GGED G2 GA | B_B=Bc d2 eB | [Fd]4- [Fd][Ec]BA | GGED G2 BA | %6
 GGED G2 GA | Bcde d2 GB |[M:3/4] [FA]4 G2 |[M:1/4] dd |[M:4/4] [Fd][Fd][FA][=FB] [^Fc]2 [FB][FA] | %11
 GGG[FA] B2 GA | B_B=Bc ddeB | [Fd]4- [Fd][Ec]BA | GGED G2 BA | GGED G2 GA | Bcde dBGB | %17
[M:3/4] [FA]4 G2 |] %18
V:2
 z4 z2 [G,D][G,C] | [G,B,][G,B,][G,C][G,B,] [G,B,D]2 [G,D][G,C] | %2
 [G,B,][G,B,][G,C][G,B,][K:treble] [G,B,D]2 [G,B,D][G,CG] | %3
 [G,DG][G,^CG][G,DG][G,EG] [G,B,G]2 [G,CG][G,DG] | [D,D]4- [D,D][D,A,][D,F,D][D,F,C] | %5
 [G,B,][G,B,][G,C][G,B,] [G,B,D]2 [G,D][G,C] | %6
 [G,B,][G,B,][G,C][G,B,][K:treble] [G,B,D]2 [G,B,D][G,CG] | %7
 [G,DG][A,DG][B,DG][CG] [B,DG]2 [B,D][G,DG] |[M:3/4][K:bass] [D,C]4 [G,B,]2 | %9
[M:1/4][K:treble] [G,B,G][G,B,G] |[M:4/4][K:bass] [D,A,][D,A,][D,C][D,^G,] [D,A,]2 [D,D][D,C] | %11
 [E,B,E][E,B,E][E,B,E][D,D][K:treble] [G,DG]2 [G,B,D][G,CG] | %12
 [G,DG][G,^CG][G,DG][G,EG] [G,B,G][G,B,G][G,CG][G,DG] | [D,D]4- [D,D][D,A,][D,F,D][D,F,C] | %14
 [G,B,][G,B,][G,C][G,B,] [G,B,D]2 [G,D][G,C] | %15
 [G,B,][G,B,][G,C][G,B,][K:treble] [G,B,D]2 [G,B,D][G,CG] | %16
 [G,DG][A,DG][B,DG][CG] [B,DG][G,DG][G,B,][G,DG] |[M:3/4][K:bass] [D,C]4 [G,B,]2 |] %18

